bernoullicharts/1_5_x__bound.svg

<?xml version="1.0" encoding="utf-8" standalone="no"?>
<!DOCTYPE svg PUBLIC "-//W3C//DTD SVG 1.1//EN"
  "http://www.w3.org/Graphics/SVG/1.1/DTD/svg11.dtd">
<!-- Created with matplotlib (https://matplotlib.org/) -->
<svg height="345.6pt" version="1.1" viewBox="0 0 460.8 345.6" width="460.8pt" xmlns="http://www.w3.org/2000/svg" xmlns:xlink="http://www.w3.org/1999/xlink">
 <defs>
  <style type="text/css">
*{stroke-linecap:butt;stroke-linejoin:round;}
  </style>
 </defs>
 <g id="figure_1">
  <g id="patch_1">
   <path d="M 0 345.6 
L 460.8 345.6 
L 460.8 0 
L 0 0 
z
" style="fill:#ffffff;"/>
  </g>
  <g id="axes_1">
   <g id="patch_2">
    <path d="M 57.6 307.584 
L 414.72 307.584 
L 414.72 41.472 
L 57.6 41.472 
z
" style="fill:#ffffff;"/>
   </g>
   <g id="matplotlib.axis_1">
    <g id="xtick_1">
     <g id="line2d_1">
      <defs>
       <path d="M 0 0 
L 0 3.5 
" id="m93fcade7a2" style="stroke:#000000;stroke-width:0.8;"/>
      </defs>
      <g>
       <use style="stroke:#000000;stroke-width:0.8;" x="73.800255" xlink:href="#m93fcade7a2" y="307.584"/>
      </g>
     </g>
     <g id="text_1">
      <text style="font-family:DejaVu Sans;font-size:10px;font-style:normal;font-weight:normal;text-anchor:middle;" transform="rotate(-0, 73.800255, 322.182437)" x="73.800255" y="322.182437">0.0</text>
     </g>
    </g>
    <g id="xtick_2">
     <g id="line2d_2">
      <g>
       <use style="stroke:#000000;stroke-width:0.8;" x="138.744153" xlink:href="#m93fcade7a2" y="307.584"/>
      </g>
     </g>
     <g id="text_2">
      <text style="font-family:DejaVu Sans;font-size:10px;font-style:normal;font-weight:normal;text-anchor:middle;" transform="rotate(-0, 138.744153, 322.182437)" x="138.744153" y="322.182437">0.2</text>
     </g>
    </g>
    <g id="xtick_3">
     <g id="line2d_3">
      <g>
       <use style="stroke:#000000;stroke-width:0.8;" x="203.688051" xlink:href="#m93fcade7a2" y="307.584"/>
      </g>
     </g>
     <g id="text_3">
      <text style="font-family:DejaVu Sans;font-size:10px;font-style:normal;font-weight:normal;text-anchor:middle;" transform="rotate(-0, 203.688051, 322.182437)" x="203.688051" y="322.182437">0.4</text>
     </g>
    </g>
    <g id="xtick_4">
     <g id="line2d_4">
      <g>
       <use style="stroke:#000000;stroke-width:0.8;" x="268.631949" xlink:href="#m93fcade7a2" y="307.584"/>
      </g>
     </g>
     <g id="text_4">
      <text style="font-family:DejaVu Sans;font-size:10px;font-style:normal;font-weight:normal;text-anchor:middle;" transform="rotate(-0, 268.631949, 322.182437)" x="268.631949" y="322.182437">0.6</text>
     </g>
    </g>
    <g id="xtick_5">
     <g id="line2d_5">
      <g>
       <use style="stroke:#000000;stroke-width:0.8;" x="333.575847" xlink:href="#m93fcade7a2" y="307.584"/>
      </g>
     </g>
     <g id="text_5">
      <text style="font-family:DejaVu Sans;font-size:10px;font-style:normal;font-weight:normal;text-anchor:middle;" transform="rotate(-0, 333.575847, 322.182437)" x="333.575847" y="322.182437">0.8</text>
     </g>
    </g>
    <g id="xtick_6">
     <g id="line2d_6">
      <g>
       <use style="stroke:#000000;stroke-width:0.8;" x="398.519745" xlink:href="#m93fcade7a2" y="307.584"/>
      </g>
     </g>
     <g id="text_6">
      <text style="font-family:DejaVu Sans;font-size:10px;font-style:normal;font-weight:normal;text-anchor:middle;" transform="rotate(-0, 398.519745, 322.182437)" x="398.519745" y="322.182437">1.0</text>
     </g>
    </g>
    <g id="text_7">
     <text style="font-family:DejaVu Sans;font-size:10px;font-style:normal;font-weight:normal;text-anchor:middle;" transform="rotate(-0, 236.16, 335.860562)" x="236.16" y="335.860562">Input Coin's Heads Probability (λ)</text>
    </g>
   </g>
   <g id="matplotlib.axis_2">
    <g id="ytick_1">
     <g id="line2d_7">
      <defs>
       <path d="M 0 0 
L -3.5 0 
" id="m5e73c5c8ae" style="stroke:#000000;stroke-width:0.8;"/>
      </defs>
      <g>
       <use style="stroke:#000000;stroke-width:0.8;" x="57.6" xlink:href="#m5e73c5c8ae" y="295.488538"/>
      </g>
     </g>
     <g id="text_8">
      <text style="font-family:DejaVu Sans;font-size:10px;font-style:normal;font-weight:normal;text-anchor:end;" transform="rotate(-0, 50.6, 299.287756)" x="50.6" y="299.287756">0.00</text>
     </g>
    </g>
    <g id="ytick_2">
     <g id="line2d_8">
      <g>
       <use style="stroke:#000000;stroke-width:0.8;" x="57.6" xlink:href="#m5e73c5c8ae" y="247.10443"/>
      </g>
     </g>
     <g id="text_9">
      <text style="font-family:DejaVu Sans;font-size:10px;font-style:normal;font-weight:normal;text-anchor:end;" transform="rotate(-0, 50.6, 250.903649)" x="50.6" y="250.903649">0.05</text>
     </g>
    </g>
    <g id="ytick_3">
     <g id="line2d_9">
      <g>
       <use style="stroke:#000000;stroke-width:0.8;" x="57.6" xlink:href="#m5e73c5c8ae" y="198.720323"/>
      </g>
     </g>
     <g id="text_10">
      <text style="font-family:DejaVu Sans;font-size:10px;font-style:normal;font-weight:normal;text-anchor:end;" transform="rotate(-0, 50.6, 202.519541)" x="50.6" y="202.519541">0.10</text>
     </g>
    </g>
    <g id="ytick_4">
     <g id="line2d_10">
      <g>
       <use style="stroke:#000000;stroke-width:0.8;" x="57.6" xlink:href="#m5e73c5c8ae" y="150.336215"/>
      </g>
     </g>
     <g id="text_11">
      <text style="font-family:DejaVu Sans;font-size:10px;font-style:normal;font-weight:normal;text-anchor:end;" transform="rotate(-0, 50.6, 154.135434)" x="50.6" y="154.135434">0.15</text>
     </g>
    </g>
    <g id="ytick_5">
     <g id="line2d_11">
      <g>
       <use style="stroke:#000000;stroke-width:0.8;" x="57.6" xlink:href="#m5e73c5c8ae" y="101.952108"/>
      </g>
     </g>
     <g id="text_12">
      <text style="font-family:DejaVu Sans;font-size:10px;font-style:normal;font-weight:normal;text-anchor:end;" transform="rotate(-0, 50.6, 105.751326)" x="50.6" y="105.751326">0.20</text>
     </g>
    </g>
    <g id="ytick_6">
     <g id="line2d_12">
      <g>
       <use style="stroke:#000000;stroke-width:0.8;" x="57.6" xlink:href="#m5e73c5c8ae" y="53.568"/>
      </g>
     </g>
     <g id="text_13">
      <text style="font-family:DejaVu Sans;font-size:10px;font-style:normal;font-weight:normal;text-anchor:end;" transform="rotate(-0, 50.6, 57.367219)" x="50.6" y="57.367219">0.25</text>
     </g>
    </g>
    <g id="text_14">
     <text style="font-family:DejaVu Sans;font-size:10px;font-style:normal;font-weight:normal;text-anchor:middle;" transform="rotate(-90, 22.254687, 174.528)" x="22.254687" y="174.528">Coin Flips Needed</text>
    </g>
   </g>
   <g id="line2d_13">
    <path clip-path="url(#p90c6fc58b2)" d="M 73.832727 295.48757 
L 77.112066 295.391495 
L 80.391405 295.298621 
L 83.670744 295.208894 
L 86.950083 295.12226 
L 90.229421 295.038667 
L 93.50876 294.958063 
L 96.788099 294.880396 
L 100.067438 294.805618 
L 103.346777 294.733679 
L 106.626116 294.664529 
L 109.905455 294.598123 
L 113.184793 294.534412 
L 116.464132 294.473351 
L 119.743471 294.414895 
L 123.02281 294.358998 
L 126.302149 294.305618 
L 129.581488 294.25471 
L 132.860826 294.206233 
L 136.140165 294.160144 
L 139.419504 294.116403 
L 142.698843 294.074969 
L 145.978182 294.035802 
L 149.257521 293.998864 
L 152.53686 293.964115 
L 155.816198 293.931518 
L 159.095537 293.901036 
L 162.374876 293.872632 
L 165.654215 293.84627 
L 168.933554 293.821914 
L 172.212893 293.79953 
L 175.492231 293.779083 
L 178.77157 293.76054 
L 182.050909 293.743866 
L 185.330248 293.72903 
L 188.609587 293.716 
L 191.888926 293.704742 
L 195.168264 293.695227 
L 198.447603 293.687424 
L 201.726942 293.681302 
L 205.006281 293.676832 
L 208.28562 293.673985 
L 211.564959 293.672731 
L 214.844298 293.673043 
L 218.123636 293.674892 
L 221.402975 293.678252 
L 224.682314 293.683094 
L 227.961653 293.689393 
L 231.240992 293.697123 
L 234.520331 293.706257 
L 237.799669 293.716771 
L 241.079008 293.72864 
L 244.358347 293.741838 
L 247.637686 293.756342 
L 250.917025 293.772129 
L 254.196364 293.789174 
L 257.475702 293.807455 
L 260.755041 293.826949 
L 264.03438 293.847633 
L 267.313719 293.869487 
L 270.593058 293.892488 
L 273.872397 293.916615 
L 277.151736 293.941847 
L 280.431074 293.968163 
L 283.710413 293.995544 
L 286.989752 294.023969 
L 290.269091 294.053418 
L 293.54843 294.083873 
L 296.827769 294.115314 
L 300.107107 294.147723 
L 303.386446 294.181081 
L 306.665785 294.21537 
L 309.945124 294.250572 
L 313.224463 294.28667 
L 316.503802 294.323646 
L 319.78314 294.361483 
L 323.062479 294.400164 
L 326.341818 294.439674 
L 329.621157 294.479995 
L 332.900496 294.521112 
L 336.179835 294.563009 
L 339.459174 294.60567 
L 342.738512 294.649081 
L 346.017851 294.693225 
L 349.29719 294.738089 
L 352.576529 294.783658 
L 355.855868 294.829918 
L 359.135207 294.876854 
L 362.414545 294.924452 
L 365.693884 294.972699 
L 368.973223 295.021582 
L 372.252562 295.071087 
L 375.531901 295.1212 
L 378.81124 295.171911 
L 382.090579 295.223205 
L 385.369917 295.27507 
L 388.649256 295.327494 
L 391.928595 295.380465 
L 395.207934 295.433971 
L 398.487273 295.488 
" style="fill:none;stroke:#1f77b4;stroke-linecap:square;stroke-width:1.5;"/>
   </g>
   <g id="line2d_14">
    <path clip-path="url(#p90c6fc58b2)" d="M 73.832727 146.465486 
L 77.112066 105.822836 
L 80.391405 82.598465 
L 83.670744 78.727736 
L 86.950083 94.21065 
L 90.229421 67.11555 
L 93.50876 125.176479 
L 96.788099 115.499658 
L 100.067438 160.013037 
L 103.346777 113.564293 
L 106.626116 119.370386 
L 109.905455 105.822836 
L 113.184793 88.404557 
L 116.464132 94.21065 
L 119.743471 144.530122 
L 123.02281 90.339922 
L 126.302149 119.370386 
L 129.581488 138.724029 
L 132.860826 109.693565 
L 136.140165 113.564293 
L 139.419504 90.339922 
L 142.698843 121.305751 
L 145.978182 109.693565 
L 149.257521 109.693565 
L 152.53686 129.047208 
L 155.816198 103.887472 
L 159.095537 119.370386 
L 162.374876 88.404557 
L 165.654215 98.081379 
L 168.933554 90.339922 
L 172.212893 86.469193 
L 175.492231 123.241115 
L 178.77157 53.568 
L 182.050909 130.982572 
L 185.330248 88.404557 
L 188.609587 150.336215 
L 191.888926 119.370386 
L 195.168264 117.435022 
L 198.447603 142.594758 
L 201.726942 105.822836 
L 205.006281 105.822836 
L 208.28562 138.724029 
L 211.564959 103.887472 
L 214.844298 115.499658 
L 218.123636 111.628929 
L 221.402975 127.111843 
L 224.682314 121.305751 
L 227.961653 107.7582 
L 231.240992 167.754494 
L 234.520331 121.305751 
L 237.799669 113.564293 
L 241.079008 88.404557 
L 244.358347 142.594758 
L 247.637686 136.788665 
L 250.917025 150.336215 
L 254.196364 144.530122 
L 257.475702 130.982572 
L 260.755041 117.435022 
L 264.03438 119.370386 
L 267.313719 127.111843 
L 270.593058 121.305751 
L 273.872397 129.047208 
L 277.151736 100.016743 
L 280.431074 152.271579 
L 283.710413 140.659394 
L 286.989752 111.628929 
L 290.269091 103.887472 
L 293.54843 121.305751 
L 296.827769 127.111843 
L 300.107107 103.887472 
L 303.386446 129.047208 
L 306.665785 148.400851 
L 309.945124 129.047208 
L 313.224463 111.628929 
L 316.503802 125.176479 
L 319.78314 119.370386 
L 323.062479 125.176479 
L 326.341818 144.530122 
L 329.621157 127.111843 
L 332.900496 127.111843 
L 336.179835 115.499658 
L 339.459174 125.176479 
L 342.738512 136.788665 
L 346.017851 152.271579 
L 349.29719 115.499658 
L 352.576529 142.594758 
L 355.855868 129.047208 
L 359.135207 136.788665 
L 362.414545 123.241115 
L 365.693884 140.659394 
L 368.973223 156.142308 
L 372.252562 148.400851 
L 375.531901 156.142308 
L 378.81124 119.370386 
L 382.090579 144.530122 
L 385.369917 103.887472 
L 388.649256 142.594758 
L 391.928595 127.111843 
L 395.207934 129.047208 
L 398.487273 105.822836 
" style="fill:none;stroke:#ff7f0e;stroke-linecap:square;stroke-width:1.5;"/>
   </g>
   <g id="patch_3">
    <path d="M 57.6 307.584 
L 57.6 41.472 
" style="fill:none;stroke:#000000;stroke-linecap:square;stroke-linejoin:miter;stroke-width:0.8;"/>
   </g>
   <g id="patch_4">
    <path d="M 414.72 307.584 
L 414.72 41.472 
" style="fill:none;stroke:#000000;stroke-linecap:square;stroke-linejoin:miter;stroke-width:0.8;"/>
   </g>
   <g id="patch_5">
    <path d="M 57.6 307.584 
L 414.72 307.584 
" style="fill:none;stroke:#000000;stroke-linecap:square;stroke-linejoin:miter;stroke-width:0.8;"/>
   </g>
   <g id="patch_6">
    <path d="M 57.6 41.472 
L 414.72 41.472 
" style="fill:none;stroke:#000000;stroke-linecap:square;stroke-linejoin:miter;stroke-width:0.8;"/>
   </g>
   <g id="text_15">
    <text style="font-family:DejaVu Sans;font-size:12px;font-style:normal;font-weight:normal;text-anchor:middle;" transform="rotate(-0, 236.16, 35.472)" x="236.16" y="35.472">Coin Flips for 1/(5+x)</text>
   </g>
   <g id="legend_1">
    <g id="patch_7">
     <path d="M 219.784062 78.82825 
L 407.72 78.82825 
Q 409.72 78.82825 409.72 76.82825 
L 409.72 48.472 
Q 409.72 46.472 407.72 46.472 
L 219.784062 46.472 
Q 217.784062 46.472 217.784062 48.472 
L 217.784062 76.82825 
Q 217.784062 78.82825 219.784062 78.82825 
z
" style="fill:#ffffff;opacity:0.8;stroke:#cccccc;stroke-linejoin:miter;"/>
    </g>
    <g id="line2d_15">
     <path d="M 221.784062 54.570437 
L 241.784062 54.570437 
" style="fill:none;stroke:#1f77b4;stroke-linecap:square;stroke-width:1.5;"/>
    </g>
    <g id="line2d_16"/>
    <g id="text_16">
     <text style="font-family:DejaVu Sans;font-size:10px;font-style:normal;font-weight:normal;text-anchor:start;" transform="rotate(-0, 249.784062, 58.070437)" x="249.784062" y="58.070437">Coin Flip Lower Bound (Mendo)</text>
    </g>
    <g id="line2d_17">
     <path d="M 221.784062 69.248562 
L 241.784062 69.248562 
" style="fill:none;stroke:#ff7f0e;stroke-linecap:square;stroke-width:1.5;"/>
    </g>
    <g id="line2d_18"/>
    <g id="text_17">
     <text style="font-family:DejaVu Sans;font-size:10px;font-style:normal;font-weight:normal;text-anchor:start;" transform="rotate(-0, 249.784062, 72.748562)" x="249.784062" y="72.748562">Avg. Coins Flipped 1/(5+x)</text>
    </g>
   </g>
  </g>
 </g>
 <defs>
  <clipPath id="p90c6fc58b2">
   <rect height="266.112" width="357.12" x="57.6" y="41.472"/>
  </clipPath>
 </defs>
</svg>

<svg height="460.8" viewBox="0 0 460.8 345.6" width="614.4" xmlns="http://www.w3.org/2000/svg" xmlns:xlink="http://www.w3.org/1999/xlink"><defs><style>*{stroke-linecap:butt;stroke-linejoin:round}</style></defs><g id="figure_1"><path d="M0 345.6h460.8V0H0z" fill="#fff" id="patch_1"/><g id="axes_1"><path d="M57.6 307.584h357.12V41.472H57.6z" fill="#fff" id="patch_2"/><g id="matplotlib.axis_1"><g id="xtick_1"><g id="line2d_1"><defs><path d="M0 0v3.5" id="m93fcade7a2" stroke="#000" stroke-width=".8"/></defs><use x="73.8" xlink:href="#m93fcade7a2" y="307.584" stroke="#000" stroke-width=".8"/></g><text x="73.8" y="322.182" font-family="DejaVu Sans" font-size="10" font-weight="400" text-anchor="middle" id="text_1">0.0</text></g><g id="xtick_2"><use x="138.744" xlink:href="#m93fcade7a2" y="307.584" stroke="#000" stroke-width=".8" id="line2d_2"/><text x="138.744" y="322.182" font-family="DejaVu Sans" font-size="10" font-weight="400" text-anchor="middle" id="text_2">0.2</text></g><g id="xtick_3"><use x="203.688" xlink:href="#m93fcade7a2" y="307.584" stroke="#000" stroke-width=".8" id="line2d_3"/><text x="203.688" y="322.182" font-family="DejaVu Sans" font-size="10" font-weight="400" text-anchor="middle" id="text_3">0.4</text></g><g id="xtick_4"><use x="268.632" xlink:href="#m93fcade7a2" y="307.584" stroke="#000" stroke-width=".8" id="line2d_4"/><text x="268.632" y="322.182" font-family="DejaVu Sans" font-size="10" font-weight="400" text-anchor="middle" id="text_4">0.6</text></g><g id="xtick_5"><use x="333.576" xlink:href="#m93fcade7a2" y="307.584" stroke="#000" stroke-width=".8" id="line2d_5"/><text x="333.576" y="322.182" font-family="DejaVu Sans" font-size="10" font-weight="400" text-anchor="middle" id="text_5">0.8</text></g><g id="xtick_6"><use x="398.52" xlink:href="#m93fcade7a2" y="307.584" stroke="#000" stroke-width=".8" id="line2d_6"/><text x="398.52" y="322.182" font-family="DejaVu Sans" font-size="10" font-weight="400" text-anchor="middle" id="text_6">1.0</text></g><text x="236.16" y="335.861" font-family="DejaVu Sans" font-size="10" font-weight="400" text-anchor="middle" id="text_7">Input Coin&apos;s Heads Probability (λ)</text></g><g id="matplotlib.axis_2"><g id="ytick_1"><g id="line2d_7"><defs><path d="M0 0h-3.5" id="m5e73c5c8ae" stroke="#000" stroke-width=".8"/></defs><use x="57.6" xlink:href="#m5e73c5c8ae" y="295.489" stroke="#000" stroke-width=".8"/></g><text x="50.6" y="299.288" font-family="DejaVu Sans" font-size="10" font-weight="400" text-anchor="end" id="text_8">0.00</text></g><g id="ytick_2"><use x="57.6" xlink:href="#m5e73c5c8ae" y="247.104" stroke="#000" stroke-width=".8" id="line2d_8"/><text x="50.6" y="250.904" font-family="DejaVu Sans" font-size="10" font-weight="400" text-anchor="end" id="text_9">0.05</text></g><g id="ytick_3"><use x="57.6" xlink:href="#m5e73c5c8ae" y="198.72" stroke="#000" stroke-width=".8" id="line2d_9"/><text x="50.6" y="202.52" font-family="DejaVu Sans" font-size="10" font-weight="400" text-anchor="end" id="text_10">0.10</text></g><g id="ytick_4"><use x="57.6" xlink:href="#m5e73c5c8ae" y="150.336" stroke="#000" stroke-width=".8" id="line2d_10"/><text x="50.6" y="154.135" font-family="DejaVu Sans" font-size="10" font-weight="400" text-anchor="end" id="text_11">0.15</text></g><g id="ytick_5"><use x="57.6" xlink:href="#m5e73c5c8ae" y="101.952" stroke="#000" stroke-width=".8" id="line2d_11"/><text x="50.6" y="105.751" font-family="DejaVu Sans" font-size="10" font-weight="400" text-anchor="end" id="text_12">0.20</text></g><g id="ytick_6"><use x="57.6" xlink:href="#m5e73c5c8ae" y="53.568" stroke="#000" stroke-width=".8" id="line2d_12"/><text x="50.6" y="57.367" font-family="DejaVu Sans" font-size="10" font-weight="400" text-anchor="end" id="text_13">0.25</text></g><text transform="rotate(-90 22.255 174.528)" x="22.255" y="174.528" font-family="DejaVu Sans" font-size="10" font-weight="400" text-anchor="middle" id="text_14">Coin Flips Needed</text></g><path clip-path="url(#p90c6fc58b2)" d="M73.833 295.488l3.28-.097 3.278-.092 3.28-.09 3.28-.087 3.278-.083 3.28-.08 3.28-.079 3.278-.074 3.28-.072 3.28-.07 3.278-.066 3.28-.064 3.28-.06 3.278-.06 3.28-.055 3.28-.053 3.278-.051 3.28-.049 3.28-.046 3.279-.044 3.279-.041 3.28-.04 3.279-.036 3.279-.035 3.28-.032 3.279-.031 3.279-.028 3.28-.027 3.279-.024 3.279-.022 3.28-.02 3.279-.02 3.279-.016 3.28-.015 3.279-.013 3.279-.011 3.28-.01 3.279-.008 3.279-.006 3.28-.004 3.279-.003 3.279-.001h3.28l3.279.002 3.279.003 3.28.005 3.279.006 3.279.008 3.28.01 3.279.01 3.279.012 3.28.013 3.279.014 3.279.016 3.28.017 3.279.018 3.279.02 3.28.02 3.279.022 3.28.023 3.278.025 3.28.025 3.28.026 3.278.028 3.28.028 3.28.03 3.278.03 3.28.031 3.28.033 3.278.033 3.28.034 3.28.036 3.278.036 3.28.037 3.28.037 3.278.04 3.28.039 3.28.04 3.278.041 3.28.042 3.28.043 3.279.043 3.279.044 3.28.045 3.279.046 3.279.046 3.28.047 3.279.047 3.279.049 3.28.049 3.279.05 3.279.05 3.28.05 3.279.051 3.279.052 3.28.052 3.279.053 3.279.054 3.28.054" fill="none" stroke="#1f77b4" stroke-linecap="square" stroke-width="1.5" id="line2d_13"/><path clip-path="url(#p90c6fc58b2)" d="M73.833 146.465l3.28-40.642 3.278-23.225 3.28-3.87 3.28 15.483 3.278-27.095 3.28 58.06 3.28-9.676 3.278 44.513 3.28-46.449 3.28 5.806 3.278-13.547 3.28-17.418 3.28 5.806 3.278 50.32 3.28-54.191 3.28 29.03 3.278 19.354 3.28-29.03 3.28 3.87 3.279-23.224 3.279 30.966 3.28-11.612h3.279l3.279 19.353 3.28-25.16 3.279 15.483 3.279-30.965 3.28 9.676 3.279-7.741 3.279-3.87 3.28 36.771 3.279-69.673 3.279 77.415 3.28-42.578 3.279 61.931 3.279-30.966 3.28-1.935 3.279 25.16 3.279-36.772h3.28l3.279 32.901 3.279-34.837 3.28 11.613 3.279-3.871 3.279 15.483 3.28-5.806 3.279-13.548 3.279 59.996 3.28-46.448 3.279-7.742 3.279-25.16 3.28 54.19 3.279-5.805 3.279 13.547 3.28-5.806 3.279-13.547 3.279-13.548 3.28 1.935 3.279 7.742 3.28-5.806 3.278 7.741 3.28-29.03 3.28 52.255 3.278-11.613 3.28-29.03 3.28-7.742 3.278 17.419 3.28 5.806 3.28-23.225 3.278 25.16 3.28 19.354 3.28-19.354 3.278-17.418 3.28 13.547 3.28-5.806 3.278 5.806 3.28 19.354 3.28-17.418h3.278l3.28-11.612 3.28 9.676 3.279 11.613 3.279 15.483 3.28-36.772 3.279 27.095 3.279-13.548 3.28 7.742 3.279-13.548 3.279 17.418 3.28 15.483 3.279-7.741 3.279 7.741 3.28-36.772 3.279 25.16 3.279-40.643 3.28 38.708 3.279-15.483 3.279 1.935 3.28-23.224" fill="none" stroke="#ff7f0e" stroke-linecap="square" stroke-width="1.5" id="line2d_14"/><path d="M57.6 307.584V41.472" fill="none" stroke="#000" stroke-linecap="square" stroke-width=".8" id="patch_3"/><path d="M414.72 307.584V41.472" fill="none" stroke="#000" stroke-linecap="square" stroke-width=".8" id="patch_4"/><path d="M57.6 307.584h357.12" fill="none" stroke="#000" stroke-linecap="square" stroke-width=".8" id="patch_5"/><path d="M57.6 41.472h357.12" fill="none" stroke="#000" stroke-linecap="square" stroke-width=".8" id="patch_6"/><text x="236.16" y="35.472" font-family="DejaVu Sans" font-size="12" font-weight="400" text-anchor="middle" id="text_15">Coin Flips for 1/(5+x)</text><g id="legend_1"><path d="M219.784 78.828H407.72q2 0 2-2V48.472q0-2-2-2H219.784q-2 0-2 2v28.356q0 2 2 2z" fill="#fff" opacity=".8" stroke="#ccc" id="patch_7"/><path d="M221.784 54.57h20" fill="none" stroke="#1f77b4" stroke-linecap="square" stroke-width="1.5" id="line2d_15"/><text x="249.784" y="58.07" font-family="DejaVu Sans" font-size="10" font-weight="400" id="text_16">Coin Flip Lower Bound (Mendo)</text><path d="M221.784 69.249h20" fill="none" stroke="#ff7f0e" stroke-linecap="square" stroke-width="1.5" id="line2d_17"/><text x="249.784" y="72.749" font-family="DejaVu Sans" font-size="10" font-weight="400" id="text_17">Avg. Coins Flipped 1/(5+x)</text></g></g></g><defs><clipPath id="p90c6fc58b2"><path d="M57.6 41.472h357.12v266.112H57.6z"/></clipPath></defs></svg>
